X: 18050
T: Humours Of Ayle House, The
R: jig
M: 6/8
K: Dmajor
|:FDD A2d|cAA BAG|FDD AdB|cAF GB/A/G|
FDD def|ged cde|f3 ded|1 cAF GB/A/G:|2 cAF GAB||
|:cAA fed|cAA A2B|cAA fed|cAF GAB|
cAA fed|cAA cde|fef ded|1 cAF GAB:|2 cAF GB/A/G||

